X:173
T:Dowdy Lad. JJo2.173
Z:vmp.Robert Watkins 2014 www.village-music-project.org.uk
B:J.Johnson Choice Collection Vol 2 after c1750
M:C|
L:1/8
Q:1/2=50
K:Cm
e2(e/f/g) (fd)=B2|c2(c/d/e)G3c|(BG)(FE)F2A2|G2=B2c4||
(ec)(eg)b3g|f>g (f/e/)(d/c/) B3e|B>c BG (B/c/)(B/G/) Fc|B>G (A/G/)(F/E/) E3E|
GBBec3F|A>B (c/B/)(A/G/)F3B|(GE) e>f (g/f/)(g/a/) g>a|(gf/e/) (d/e/)(d/c/)c4|]

